X: 3213
T: JOLLY COMPANIONS
%R: jig
B: James Kerr "Merry Melodies" v.3 p.25 #213
Z: 2016 John Chambers <jc:trillian.mit.edu>
M: 6/8
L: 1/8
K: A
|:\
vABA uc2uc | BcB ud2ud |\
ceA ud2uc | BAG A3 ::\
a2e f2e | a2e f2e |\
efg agf | edc B2e |\
fed cde | edc Bcd |\
ecA d2c | BAG A3 :|

%%sep 1 1 500
%%sep 1 1 500

